X: 14282
T: Gaelic Tobacco Tune, The
R: reel
M: 4/4
K: Ddorian
|:D2D2 DEFE|D2D2 DAAA|D2D2 DEFD|C2C2 EFGE:|
|:A2Ac BAG2|A2A2 Addd|c2A2 ABcA|C2C2 EFGE:|

